X:1
T:Title
%%score { 1 | ( 2 3 4 ) }
L:1/8
M:4/4
K:F
V:1 treble nm="Grand Piano"
V:2 bass 
V:3 bass 
V:4 bass 
V:1
 z4 z2[Q:1/4=100] [FA]2 | [EG]3 [EA] [EG]2 [Ed]2 |[M:9/8] c2 A- A c2- c A2 | %3
[M:4/4] [EG]3 [EA] [EG]2 [Ed]2 |[M:9/8] c2 A- A c2- c [Af]2 |[M:4/4] [EBe]2 [EBd]2 [EAc]2 [FAd]2 | %6
[M:9/8] [CGc]2 [CGB]- [CGB] [CFA]2- [CFA] [^CEA]2 |[M:4/4] [DG]2 z C [B,DE]2 [A,DF]2 | %8
[M:7/8] [G,^CF]3 [G,CE] [G,CE]3 |[M:1/4] C2 |[M:4/4] F3 G F2 A2 | c3 d c2 [CF]2 | %12
 .[B,DB]2 [CFA]2 [CD]2 [CDA]2 |[M:15/8] [B,EG]3 [A,F] [A,F]2- [A,F] z2 z6 |[M:4/4] [DFB]8 | %15
 [CFA]8 |] %16
V:2
 z4 z2 [F,C]2 | [C,B,]3 [C,C] [C,B,]2 [C,B,]2 | %2
[M:9/8] [F,A,F]2 [F,CF]- [F,CF] [F,A,F]2- [F,A,F] [F,CF]2 |[M:4/4] [C,B,]3 [C,C] [C,B,]2 [C,B,]2 | %4
[M:9/8] [F,A,F]2 [F,CF]- [F,CF] [F,A,F]2- [F,A,F] [F,C]2 |[M:4/4] G,2 G,2 A,2 D,2 | %6
[M:9/8] E,2 E,- E, F,2- F, A,,2 |[M:4/4] z2 D2 z4 |[M:7/8] A,,3 A,, A,,3 |[M:1/4] C,2 | %10
[M:4/4] F,3 G, F,2 A,2 | C3 D C2 A,,2 | z E A,,2 B,,2 B,,2 |[M:15/8] C,3 F, F,2- F, z2 z6 | %14
[M:4/4] B,,8 | F,8 |] %16
V:3
 x8 | x8 |[M:9/8] x9 |[M:4/4] x8 |[M:9/8] x9 |[M:4/4] x8 |[M:9/8] x9 |[M:4/4] z2 z A,, G,,2 D,2 | %8
[M:7/8] x7 |[M:1/4] x2 |[M:4/4] x8 | x8 | G,,2 z2 z4 |[M:15/8] x15 |[M:4/4] x8 | x8 |] %16
V:4
 x8 | x8 |[M:9/8] x9 |[M:4/4] x8 |[M:9/8] x9 |[M:4/4] x8 |[M:9/8] x9 |[M:4/4] B,,4 z4 |[M:7/8] x7 | %9
[M:1/4] x2 |[M:4/4] x8 | x8 | x8 |[M:15/8] x15 |[M:4/4] x8 | x8 |] %16

